raw-svg/globe.svg

<svg viewBox="0 0 24 24" xmlns="http://www.w3.org/2000/svg"><path d="m12 3a9 9 0 1 0 9 9 9 9 0 0 0 -9-9zm7.46 8.25h-2.76a13 13 0 0 0 -2.94-6.53 7.52 7.52 0 0 1 5.7 6.53zm-10.65 1.5h6.38a13.18 13.18 0 0 1 -3.19 6.35 13.18 13.18 0 0 1 -3.19-6.35zm0-1.5a13.18 13.18 0 0 1 3.19-6.35 13.18 13.18 0 0 1 3.19 6.35zm1.43-6.53a13 13 0 0 0 -2.94 6.53h-2.76a7.52 7.52 0 0 1 5.7-6.53zm-5.7 8h2.76a13 13 0 0 0 2.94 6.53 7.52 7.52 0 0 1 -5.7-6.5zm9.22 6.53a13 13 0 0 0 2.94-6.53h2.76a7.52 7.52 0 0 1 -5.7 6.56z"/></svg>

<svg xmlns="http://www.w3.org/2000/svg" viewBox="0 0 24 24"><g id="globe"><path d="M12,3a9,9,0,1,0,9,9A9,9,0,0,0,12,3Zm7.46,8.25H16.7a13,13,0,0,0-2.94-6.53A7.52,7.52,0,0,1,19.46,11.25ZM8.81,12.75h6.38A13.18,13.18,0,0,1,12,19.1,13.18,13.18,0,0,1,8.81,12.75Zm0-1.5A13.18,13.18,0,0,1,12,4.9a13.18,13.18,0,0,1,3.19,6.35Zm1.43-6.53A13,13,0,0,0,7.3,11.25H4.54A7.52,7.52,0,0,1,10.24,4.72Zm-5.7,8H7.3a13,13,0,0,0,2.94,6.53A7.52,7.52,0,0,1,4.54,12.75Zm9.22,6.53a13,13,0,0,0,2.94-6.53h2.76A7.52,7.52,0,0,1,13.76,19.28Z"/></g></svg>
